X: 20571
M: 2/4
L: 1/16
K: G
g2 |\
f>dd>d f>aa>f | gfef g2zg | fgef defd | ABAF G2FG |\
g=f |\
efge fgaf | efge dBAG | edec fgaf | ecdB c2gf |\
efge fgaf | efge dBAG | edec fgaf | ecdB "^D.C."c2 |]


